X: 1
T: Shortnin' Bread
C: James Whitcomb Riley (1900)
R: reel
Z: 2012 John Chambers <jc:trillian.mit.edu>
M: 4/4
L: 1/8
K: C
|: "C"c2 A2 G2 AG |  "C"c2 A2 "(G)" G4  |\
   "C"c2 A2 G2 AG | "G7"E2 D2    "C"C4 :|
|: "C"CC "F"AA "C"GG "F"A2 |  "C"C2 "F"A2 "C"G2 "F"A2 |\
   "C"CC "F"AA "C"GG "F"A2 | "G7"E2    D2 "C"C4 :|
